src/resources/assets/play-repeat-all.svg

<svg xmlns="http://www.w3.org/2000/svg" width="16" height="16"><path d="M 9.738281 1.648438 L 9.6875 1.601562 C 9.492188 1.453125 9.210938 1.46875 9.03125 1.648438 L 8.988281 1.699219 C 8.839844 1.894531 8.855469 2.175781 9.03125 2.355469 L 10.347656 3.675781 L 5.511719 3.675781 C 3.191406 3.757812 1.332031 5.675781 1.332031 8.023438 C 1.332031 9.152344 1.761719 10.175781 2.460938 10.949219 L 2.507812 10.996094 C 2.597656 11.070312 2.710938 11.117188 2.832031 11.117188 C 3.109375 11.117188 3.332031 10.890625 3.332031 10.613281 C 3.332031 10.5 3.292969 10.390625 3.230469 10.308594 L 3.097656 10.152344 C 2.621094 9.574219 2.332031 8.832031 2.332031 8.023438 C 2.332031 6.175781 3.824219 4.679688 5.667969 4.679688 L 10.253906 4.679688 L 9.03125 5.90625 L 8.988281 5.957031 C 8.839844 6.152344 8.855469 6.433594 9.03125 6.613281 C 9.226562 6.8125 9.542969 6.8125 9.738281 6.613281 L 11.863281 4.484375 L 11.90625 4.433594 C 12.054688 4.238281 12.039062 3.957031 11.863281 3.777344 Z M 13.488281 5.046875 C 13.398438 4.976562 13.289062 4.929688 13.167969 4.929688 C 12.890625 4.929688 12.667969 5.15625 12.667969 5.433594 C 12.667969 5.558594 12.710938 5.671875 12.785156 5.757812 C 13.332031 6.355469 13.667969 7.148438 13.667969 8.023438 C 13.667969 9.871094 12.175781 11.367188 10.332031 11.367188 L 5.707031 11.367188 L 6.976562 10.09375 L 7.023438 10.039062 C 7.15625 9.859375 7.15625 9.613281 7.019531 9.4375 L 6.976562 9.386719 L 6.917969 9.335938 C 6.742188 9.203125 6.496094 9.207031 6.320312 9.339844 L 6.269531 9.386719 L 4.148438 11.515625 L 4.097656 11.570312 C 3.96875 11.75 3.96875 11.996094 4.101562 12.171875 L 4.148438 12.222656 L 6.269531 14.351562 L 6.324219 14.402344 C 6.519531 14.546875 6.796875 14.53125 6.976562 14.351562 C 7.15625 14.171875 7.167969 13.890625 7.019531 13.695312 L 6.976562 13.644531 L 5.710938 12.371094 L 10.488281 12.371094 C 12.808594 12.289062 14.667969 10.375 14.667969 8.023438 C 14.667969 6.894531 14.238281 5.867188 13.535156 5.09375 Z M 13.488281 5.046875" fill="#ddd"/></svg>

<svg xmlns="http://www.w3.org/2000/svg" width="16" height="16"><path d="M9.738 1.648l-.05-.046a.5.5 0 00-.657.046l-.043.051a.505.505 0 00.043.656l1.317 1.32H5.512c-2.32.083-4.18 2-4.18 4.348 0 1.13.43 2.153 1.129 2.926l.047.047c.09.074.203.121.324.121a.502.502 0 00.398-.808l-.132-.157a3.339 3.339 0 01-.766-2.129A3.338 3.338 0 015.668 4.68h4.586L9.03 5.906l-.043.051a.505.505 0 00.043.656c.196.2.512.2.707 0l2.125-2.129.043-.05a.505.505 0 00-.043-.657zm3.75 3.399a.52.52 0 00-.32-.117c-.277 0-.5.226-.5.504 0 .125.043.238.117.324.547.597.883 1.39.883 2.265a3.338 3.338 0 01-3.336 3.344H5.707l1.27-1.273.046-.055a.498.498 0 00-.003-.601l-.043-.051-.059-.051a.498.498 0 00-.598.004l-.05.047-2.122 2.129-.05.054a.51.51 0 00.004.602l.046.05 2.122 2.13.054.05a.5.5 0 00.696-.707l-.043-.05L5.71 12.37h4.777a4.344 4.344 0 004.18-4.348 4.34 4.34 0 00-1.133-2.93zm0 0" fill="#ddd"/></svg>
